apps/22/miro.svg

<?xml version="1.0" encoding="UTF-8" standalone="no"?>
<!-- Created with Inkscape (http://www.inkscape.org/) -->

<svg
   xmlns:svg="http://www.w3.org/2000/svg"
   xmlns="http://www.w3.org/2000/svg"
   xmlns:xlink="http://www.w3.org/1999/xlink"
   version="1.0"
   width="22"
   height="22"
   id="svg2">
  <defs
     id="defs4">
    <linearGradient
       id="linearGradient2490">
      <stop
         id="stop2492"
         style="stop-color:#791235;stop-opacity:1"
         offset="0" />
      <stop
         id="stop2494"
         style="stop-color:#dd3b27;stop-opacity:1"
         offset="1" />
    </linearGradient>
    <linearGradient
       x1="-23.916132"
       y1="43.707703"
       x2="-23.916132"
       y2="4.6497173"
       id="linearGradient2465"
       xlink:href="#linearGradient2490"
       gradientUnits="userSpaceOnUse"
       gradientTransform="matrix(0.4666667,0,0,0.4473684,23.794702,0.1961788)" />
    <linearGradient
       id="linearGradient3242">
      <stop
         id="stop3244"
         style="stop-color:#f8b17e;stop-opacity:1"
         offset="0" />
      <stop
         id="stop3246"
         style="stop-color:#e35d4f;stop-opacity:1"
         offset="0.26238" />
      <stop
         id="stop3248"
         style="stop-color:#c6262e;stop-opacity:1"
         offset="0.66093999" />
      <stop
         id="stop3250"
         style="stop-color:#690b54;stop-opacity:1"
         offset="1" />
    </linearGradient>
    <radialGradient
       cx="32.806725"
       cy="3.5327499"
       r="23"
       fx="32.806725"
       fy="3.5327499"
       id="radialGradient2463"
       xlink:href="#linearGradient3242"
       gradientUnits="userSpaceOnUse"
       gradientTransform="matrix(0,0.7586565,-0.8286935,0,13.927567,-21.691492)" />
    <linearGradient
       id="linearGradient3230">
      <stop
         id="stop3232"
         style="stop-color:white;stop-opacity:1"
         offset="0" />
      <stop
         id="stop3234"
         style="stop-color:white;stop-opacity:0"
         offset="1" />
    </linearGradient>
    <linearGradient
       x1="26.153599"
       y1="6.5038338"
       x2="26.153599"
       y2="42.501686"
       id="linearGradient2469"
       xlink:href="#linearGradient3230"
       gradientUnits="userSpaceOnUse"
       gradientTransform="matrix(0.4666667,0,0,0.4473684,-0.2000003,0.0394738)" />
    <linearGradient
       id="linearGradient3202">
      <stop
         id="stop3204"
         style="stop-color:white;stop-opacity:1"
         offset="0" />
      <stop
         id="stop3206"
         style="stop-color:#d3eefc;stop-opacity:1"
         offset="1" />
    </linearGradient>
    <linearGradient
       x1="22.885227"
       y1="17.628952"
       x2="22.885227"
       y2="30.889549"
       id="linearGradient2438"
       xlink:href="#linearGradient3202"
       gradientUnits="userSpaceOnUse"
       gradientTransform="matrix(0.4970956,0,0,0.4073268,0.5068357,0.9655388)" />
  </defs>
  <g
     id="layer1">
    <path
       d="m 0.49999996,13.801075 c 0,0 4.02061694,-7.2086697 9.78081604,-10.0800091 3.35738,-1.6735835 8.766801,-2.1030278 11.186578,1.8301828 0,0 0.815147,10.3339923 -5.70603,13.2431423 0,0 -6.7476052,3.47361 -15.26136404,-4.993316 z"
       id="path2421"
       style="fill:url(#radialGradient2463);fill-opacity:1;fill-rule:evenodd;stroke:url(#linearGradient2465);stroke-width:1px;stroke-linecap:butt;stroke-linejoin:miter;stroke-opacity:1" />
    <path
       d="M 15.59375,3.5 C 15.311565,3.49622 15.007089,3.510459 14.71875,3.53125 13.295159,3.6338996 11.88516,3.9966466 10.75,4.5625 c -4.6632171,2.3245166 -8.1556372,7.662053 -8.96875,9 3.8776225,3.649064 7.2093002,4.738978 9.59375,4.90625 1.235027,0.08664 2.191634,-0.03762 2.84375,-0.1875 0.61951,-0.142385 0.956521,-0.29102 1,-0.3125 0.0073,-0.0078 0.01991,0.005 0.03125,0 0.01701,-0.0076 0.01798,-0.03249 0.03125,-0.03125 0.02212,0.0021 0.05955,-0.0013 0.0625,0 0.0064,-0.0029 -0.0064,-0.02862 0,-0.03125 2.835409,-1.264899 4.135661,-4.230154 4.71875,-7.03125 0.532362,-2.5574041 0.425626,-4.6645889 0.40625,-5 -0.0047,-0.00689 0.0047,-0.024396 0,-0.03125 C 19.324547,4.1770369 17.546776,3.526171 15.59375,3.5 z"
       id="path2467"
       style="opacity:0.4;fill:none;stroke:url(#linearGradient2469);stroke-width:1px;stroke-linecap:butt;stroke-linejoin:miter;stroke-opacity:1" />
    <path
       d="m 7,8.9901023 c 9.487896,0 9.078701,-0.1096312 10.998332,2.0098977 -0.0068,-1.3057015 0.01419,-0.419246 -0.01162,-1.7246359 C 17.94996,8.4860999 17.62191,7.6140512 16.749174,7.2142737 16.249887,7.0626382 16.107127,7.0052191 15.484373,7.0052191 14.201868,7.0052191 9.2248397,7 7,7 7,9.0642048 7,6.925898 7,8.9901023 z"
       id="path2438"
       style="font-size:26.70637703px;font-style:normal;font-variant:normal;font-weight:bold;font-stretch:normal;text-align:start;line-height:125%;writing-mode:lr-tb;text-anchor:start;fill:#a1ceef;fill-opacity:1;stroke:none;font-family:URW Gothic L;-inkscape-font-specification:URW Gothic L Book" />
    <path
       d="m 7,14 c 0.5859615,0 1.8049802,0 2.3909416,0 0.00958,-1.153046 -0.039924,-2.306821 0,-3.459326 0,-0.6147622 0.1001559,-1.1644452 0.9070264,-1.1644452 0.9257,0 0.999262,0.4156358 0.999262,1.2073152 0,0.72353 0,2.692925 0,3.416456 0.585962,0 1.811447,0 2.397407,0 0.0069,-1.133875 -0.02812,-2.26817 0,-3.401737 0.0043,-0.545219 -0.05419,-1.2220342 0.952753,-1.2220342 0.905899,0 0.959552,0.5342207 0.959552,1.2311842 0,0.715573 0,2.677013 0,3.392587 0.585962,0 1.805429,0 2.39139,0 -0.0068,-1.265089 0.01419,-2.530621 -0.01162,-3.795408 C 17.94996,9.4398775 17.62191,8.5949521 16.749174,8.2076094 16.249887,8.06069 16.107127,8.0050568 15.484373,8.0050568 14.201868,8.0050568 9.2248397,8 7,8 c 0,2 0,4 0,6 z"
       id="text3190"
       style="font-size:26.70637703px;font-style:normal;font-variant:normal;font-weight:bold;font-stretch:normal;text-align:start;line-height:125%;writing-mode:lr-tb;text-anchor:start;fill:url(#linearGradient2438);fill-opacity:1;stroke:none;font-family:URW Gothic L;-inkscape-font-specification:URW Gothic L Book" />
  </g>
</svg>

<?xml version="1.0" encoding="UTF-8" standalone="no"?>
<!-- Created with Inkscape (http://www.inkscape.org/) -->
<svg
   xmlns:svg="http://www.w3.org/2000/svg"
   xmlns="http://www.w3.org/2000/svg"
   xmlns:xlink="http://www.w3.org/1999/xlink"
   version="1.0"
   width="22"
   height="22"
   id="svg2">
  <defs
     id="defs4">
    <linearGradient
       id="linearGradient2490">
      <stop
         id="stop2492"
         style="stop-color:#791235;stop-opacity:1"
         offset="0" />
      <stop
         id="stop2494"
         style="stop-color:#dd3b27;stop-opacity:1"
         offset="1" />
    </linearGradient>
    <linearGradient
       x1="-23.916132"
       y1="43.707703"
       x2="-23.916132"
       y2="4.6497173"
       id="linearGradient2465"
       xlink:href="#linearGradient2490"
       gradientUnits="userSpaceOnUse"
       gradientTransform="matrix(0.4666667,0,0,0.4473684,23.794702,0.1961788)" />
    <linearGradient
       id="linearGradient3242">
      <stop
         id="stop3244"
         style="stop-color:#f8b17e;stop-opacity:1"
         offset="0" />
      <stop
         id="stop3246"
         style="stop-color:#e35d4f;stop-opacity:1"
         offset="0.26238" />
      <stop
         id="stop3248"
         style="stop-color:#c6262e;stop-opacity:1"
         offset="0.66093999" />
      <stop
         id="stop3250"
         style="stop-color:#690b54;stop-opacity:1"
         offset="1" />
    </linearGradient>
    <radialGradient
       cx="32.806725"
       cy="3.5327499"
       r="23"
       fx="32.806725"
       fy="3.5327499"
       id="radialGradient2463"
       xlink:href="#linearGradient3242"
       gradientUnits="userSpaceOnUse"
       gradientTransform="matrix(0,0.7586565,-0.8286935,0,13.927567,-21.691492)" />
    <linearGradient
       id="linearGradient3230">
      <stop
         id="stop3232"
         style="stop-color:#ffffff;stop-opacity:1"
         offset="0" />
      <stop
         id="stop3234"
         style="stop-color:#ffffff;stop-opacity:0"
         offset="1" />
    </linearGradient>
    <linearGradient
       x1="26.153599"
       y1="6.5038338"
       x2="26.153599"
       y2="42.501686"
       id="linearGradient2469"
       xlink:href="#linearGradient3230"
       gradientUnits="userSpaceOnUse"
       gradientTransform="matrix(0.4666667,0,0,0.4473684,-0.2000003,3.94738e-2)" />
    <linearGradient
       id="linearGradient3202">
      <stop
         id="stop3204"
         style="stop-color:#ffffff;stop-opacity:1"
         offset="0" />
      <stop
         id="stop3206"
         style="stop-color:#d3eefc;stop-opacity:1"
         offset="1" />
    </linearGradient>
    <linearGradient
       x1="22.885227"
       y1="17.628952"
       x2="22.885227"
       y2="30.889549"
       id="linearGradient2438"
       xlink:href="#linearGradient3202"
       gradientUnits="userSpaceOnUse"
       gradientTransform="matrix(0.4970956,0,0,0.4073268,0.5068357,0.9655388)" />
  </defs>
  <g
     id="layer1">
    <path
       d="M 0.49999996,13.801075 C 0.49999996,13.801075 4.5206169,6.5924053 10.280816,3.7210659 C 13.638196,2.0474824 19.047617,1.6180381 21.467394,5.5512487 C 21.467394,5.5512487 22.282541,15.885241 15.761364,18.794391 C 15.761364,18.794391 9.0137588,22.268001 0.49999996,13.801075 z"
       id="path2421"
       style="fill:url(#radialGradient2463);fill-opacity:1;fill-rule:evenodd;stroke:url(#linearGradient2465);stroke-width:1px;stroke-linecap:butt;stroke-linejoin:miter;stroke-opacity:1" />
    <path
       d="M 15.59375,3.5 C 15.311565,3.4962187 15.007089,3.5104591 14.71875,3.53125 C 13.295159,3.6338996 11.88516,3.9966466 10.75,4.5625 C 6.0867829,6.8870166 2.5943628,12.224553 1.78125,13.5625 C 5.6588725,17.211564 8.9905502,18.301478 11.375,18.46875 C 12.610027,18.555388 13.566634,18.431128 14.21875,18.28125 C 14.83826,18.138865 15.175271,17.99023 15.21875,17.96875 C 15.226065,17.960942 15.238663,17.973795 15.25,17.96875 C 15.267006,17.961182 15.267978,17.936259 15.28125,17.9375 C 15.30337,17.939568 15.340801,17.936237 15.34375,17.9375 C 15.350113,17.934563 15.337335,17.908879 15.34375,17.90625 C 18.179159,16.641351 19.479411,13.676096 20.0625,10.875 C 20.594862,8.3175959 20.488126,6.2104111 20.46875,5.875 C 20.464066,5.8681116 20.473455,5.8506038 20.46875,5.84375 C 19.324547,4.1770369 17.546776,3.526171 15.59375,3.5 z"
       id="path2467"
       style="opacity:0.4;fill:none;fill-opacity:1;fill-rule:evenodd;stroke:url(#linearGradient2469);stroke-width:1px;stroke-linecap:butt;stroke-linejoin:miter;stroke-opacity:1" />
    <path
       d="M 7,8.9901023 C 16.487896,8.9901023 16.078701,8.8804711 17.998332,11 C 17.991531,9.6942985 18.012526,10.580754 17.986716,9.2753641 C 17.94996,8.4860999 17.62191,7.6140512 16.749174,7.2142737 C 16.249887,7.0626382 16.107127,7.0052191 15.484373,7.0052191 C 14.201868,7.0052191 9.2248397,7 7,7 C 7,9.0642048 7,6.925898 7,8.9901023 z"
       id="path2438"
       style="font-size:26.70637703px;font-style:normal;font-variant:normal;font-weight:bold;font-stretch:normal;text-align:start;line-height:125%;writing-mode:lr-tb;text-anchor:start;fill:#a1ceef;fill-opacity:1;stroke:none;stroke-width:1px;stroke-linecap:butt;stroke-linejoin:miter;stroke-opacity:1;font-family:URW Gothic L;-inkscape-font-specification:URW Gothic L Book" />
    <path
       d="M 7,14 C 7.5859615,14 8.8049802,14 9.3909416,14 C 9.4005188,12.846954 9.351018,11.693179 9.3909416,10.540674 C 9.3909416,9.9259118 9.4910975,9.3762288 10.297968,9.3762288 C 11.223668,9.3762288 11.29723,9.7918646 11.29723,10.583544 C 11.29723,11.307074 11.29723,13.276469 11.29723,14 C 11.883192,14 13.108677,14 13.694637,14 C 13.701511,12.866125 13.666514,11.73183 13.694637,10.598263 C 13.69891,10.053044 13.640446,9.3762288 14.64739,9.3762288 C 15.553289,9.3762288 15.606942,9.9104495 15.606942,10.607413 C 15.606942,11.322986 15.606942,13.284426 15.606942,14 C 16.192904,14 17.412371,14 17.998332,14 C 17.991531,12.734911 18.012526,11.469379 17.986716,10.204592 C 17.94996,9.4398775 17.62191,8.5949521 16.749174,8.2076094 C 16.249887,8.06069 16.107127,8.0050568 15.484373,8.0050568 C 14.201868,8.0050568 9.2248397,8 7,8 C 7,10 7,12 7,14 z"
       id="text3190"
       style="font-size:26.70637703px;font-style:normal;font-variant:normal;font-weight:bold;font-stretch:normal;text-align:start;line-height:125%;writing-mode:lr-tb;text-anchor:start;fill:url(#linearGradient2438);fill-opacity:1;stroke:none;stroke-width:1px;stroke-linecap:butt;stroke-linejoin:miter;stroke-opacity:1;font-family:URW Gothic L;-inkscape-font-specification:URW Gothic L Book" />
  </g>
</svg>
